symbolic/status/folder-visiting-symbolic.svg

<svg xmlns="http://www.w3.org/2000/svg" width="16" height="16" version="1.1">
 <path style="fill:#323a41;opacity:0.3" d="M 1,2 V 13 C 1,13 1,14 2,14 H 14 C 14,14 15,14 15,13 V 4 C 15,3 14,3 14,3 H 9 L 7,1 H 2 C 2,1 1,1 1,2 Z"/>
 <path style="fill:#323a41" d="M 2,1 C 2,1 1.9084,1.0089 1.7891,1.0332 L 15,8.6602 V 6.6602 L 5.1953,1 Z M 1,2.5781 V 4.5781 L 15,12.66 V 10.66 Z M 12.125,3 15,4.6602 V 4 C 15,3 14,3 14,3 Z M 1,6.5781 V 8.5781 L 10.393,14 H 13.855 Z M 1,10.578 V 12.578 L 3.4648,14 H 6.9277 Z"/>
</svg>

<svg xmlns="http://www.w3.org/2000/svg" width="16" height="16"><path style="fill:#323a41;opacity:.3" d="M1 2v11s0 1 1 1h12s1 0 1-1V4c0-1-1-1-1-1H9L7 1H2S1 1 1 2z"/><path style="fill:#323a41" d="M2 1s-.092.009-.21.033L15 8.66v-2L5.195 1zM1 2.578v2l14 8.082v-2zM12.125 3 15 4.66V4c0-1-1-1-1-1zM1 6.578v2L10.393 14h3.462zm0 4v2L3.465 14h3.463z"/></svg>
